X: 0
T: A Dram At The Wake
C: Ceolachan
M: 2/4
L: 1/8
K: Dmaj
|:"D"F>E DE | FA "G"dB | "D/F#"AF DF |"A"EF/E/ DE |
"Bm"F>E DE |"F#m"F/G/A d>B |"G/A"AF EF/E/ |1"D"D2 DE :|2 "D"D3 d/e/ ||
|:"D"f>e dB | Ad Fd | AF dF |"A"E3 d/e/ |
"Bm"ff/e/ dB | A/B/A/F/ D>E |"G"Fd "A"Ed |1"D" D3 d/e/ :|2 D2 D2 |]